svgs/sharp-light/user-nurse-hair-long.svg

<svg xmlns="http://www.w3.org/2000/svg" viewBox="0 0 448 512"><!--! Font Awesome Pro 6.6.0 by @fontawesome - https://fontawesome.com License - https://fontawesome.com/license (Commercial License) Copyright 2024 Fonticons, Inc. --><path d="M128 76.9l96-42 96 42 0 67.1s0 0 0 0l-192 0 0-67.1zM352 144l0-88L224 0 96 56l0 88 0 16s0 0 0 0l0 16s0 0 0 0l0 40L38.4 259.2 32 264l0 8 0 32 0 16 16 0 80 0 16 0 0-32-16 0-64 0 0-8 50.4-37.8C136.8 279.2 177.5 304 224 304s87.2-24.8 109.6-61.8L384 280l0 8-64 0-16 0 0 32 16 0 80 0 16 0 0-16 0-32 0-8-6.4-4.8L352 216l0-40s0 0 0 0l0-16s0 0 0 0l0-16s0 0 0 0zm-32 32c0 53-43 96-96 96c-35.5 0-66.6-19.3-83.2-48l75.2 0 9.9 0 4.4-8.8L249.9 176l70.1 0s0 0 0 0zm-192 0s0 0 0 0l86.1 0-8 16-76.8 0c-.9-5.2-1.3-10.5-1.3-16zm73.4 276.6L224 475.2l22.6-22.6L315.2 384l47.1 0 38.4 96L47.3 480l38.4-96 47.1 0 68.6 68.6zM384 352l-82.1 0-55.3 55.3L224 429.9l-22.6-22.6L146.1 352 64 352 12.8 480 0 512l34.5 0 379.1 0 34.5 0-12.8-32L384 352zM240 48l-32 0 0 16 0 8-8 0-16 0 0 32 16 0 8 0 0 8 0 16 32 0 0-16 0-8 8 0 16 0 0-32-16 0-8 0 0-8 0-16z"/></svg>

<svg xmlns="http://www.w3.org/2000/svg" viewBox="0 0 448 512"><!--! Font Awesome Pro 6.4.0 by @fontawesome - https://fontawesome.com License - https://fontawesome.com/license (Commercial License) Copyright 2023 Fonticons, Inc. --><path d="M128 76.9l96-42 96 42V144v0H128V76.9zM352 144V56L224 0 96 56v88 16 0 16 0 40L38.4 259.2 32 264v8 32 16H48h80 16V288H128 64v-8l50.4-37.8C136.8 279.2 177.5 304 224 304s87.2-24.8 109.6-61.8L384 280v8H320 304v32h16 80 16V304 272v-8l-6.4-4.8L352 216V176v0V160v0V144v0zm-32 32c0 53-43 96-96 96c-35.5 0-66.6-19.3-83.2-48H216h9.9l4.4-8.8L249.9 176H320v0zm-192 0v0h86.1l-8 16H129.3c-.9-5.2-1.3-10.5-1.3-16zm73.4 276.6L224 475.2l22.6-22.6L315.2 384h47.1l38.4 96H47.3l38.4-96h47.1l68.6 68.6zM384 352H301.9l-55.3 55.3L224 429.9l-22.6-22.6L146.1 352H64L12.8 480 0 512H34.5 413.5 448l-12.8-32L384 352zM240 48H208V64v8h-8H184v32h16 8v8 16h32V112v-8h8 16V72H248h-8V64 48z"/></svg>
